X:1
T:Title
%%score 1 { 2 | 3 }
L:1/8
Q:1/4=105
M:4/4
K:G
V:1 treble nm="Grand Piano, Soprano"
V:2 treble nm="Choir Pad, Bass"
V:3 bass 
V:1
 D2 [GB]2- [GB][GA] G2 | [Gc]2 [GB]2- [GB]G [GB]2 | [Gd]2 [Fd]2- [Fd][FA] [GB]2 | %3
w: By~J.~Raymond~Neff * * * *|||
 [Ac]2 [GB]2- [GB][FA] [FA]2 | D2 [DG]2- [DG][DA] [GB]2 | [=Fd]2 [Fd]2- [Fd][Ec] [Ec]2 | %6
w: |||
 [Ec]2 [DB]4 [DA]2- | [DA]2 [DG]6 | [GB]2 [Gd]2- [Gd][Ge] [Gd]2 | [GB]2 [Gd]2- [Gd][Fc] [Fc]2 | %10
w: ||||
 [Fc]2 [GB]2- [GB][GB] [GB]2 | G2 [GB]2- [GB][FA] [FA]2 | D2 [DG]2- [DG][DA] [GB]2 | %13
w: |||
 [=Fd]2 [Fd]2- [Fd][Ec] [Ec]2 | [Ec]2 [DB]4 [DA]2- | [DA]2 [DG]6- | [DG]2 z2 z4 |] %17
w: ||||
V:2
 B,2 D2- DC B,2 | E2 D2- D[K:bass]B, D2 | B,2 A,2- A,[K:treble]D D2 | D2 D2- DD D2 | %4
 C2[K:bass] B,2- B,D D2 | G,2 G,2- G,G, G,2 | G,2 G,4[K:treble] C2- | C2 B,6 | D2 B,2- B,C B,2 | %9
 D2 D2- DD D2 | D2 D2- DD D2 | ^C2 D2- DD D2 | C2[K:bass] B,2- B,C D2 | G,2 G,2- G,G, G,2 | %14
 G,2 G,4 C2- | C2 B,6- | B,2 z2 z4 |] %17
V:3
 G,2 G,2- G,G, G,2 | G,2 G,2- G,G, G,2 | G,2 D,2- D,D, G,2 | F,2 G,2- G,D, D,2 | %4
 F,2 G,2- G,G, G,2 | B,,2 B,,2- B,,C, C,2 | C,2 D,4 D,2- | D,2 G,,6 | G,2 G,2- G,G, G,2 | %9
 G,2 B,2- B,A, A,2 | D,2 G,2- G,G, G,2 | E,2 D,2- D,D, D,2 | F,2 G,2- G,G, G,2 | %13
 B,,2 B,,2- B,,C, C,2 | C,2 D,4 D,2- | D,2 G,,6- | G,,2 z2 z4 |] %17

